X: 252
T: the Fairy Cobbler   #2
R: jig
%S: s:4 b:20(4+4+4+4)
B: O'Neill's 1850 #252
O: F.O'Neill
Z: 1997 by John Chambers <jc@trillian.mit.edu>
N: Compacted by using labels and play order [JC]
P: Play A1A2 B1B2A2
Q: "With spirit"
M: 6/8
L: 1/8
K: Gm
"^A1"[|](d/c/) | B2G A2F | G2F D2E | F2E F2G | F3 d2 |]
"^A2"[| c | BAG AG^F | G2=F DEC | D=E^F G2G | G3- HG2 |]
"^B1"[| D | G2G B2c | d2c f2d | c2A F2A | c3- c2 |]
"^B2"[| A | G2G B2c | d2g g2g |{=e}f2d B2c | d3- "->A2"d2 |]
